themes/wwwevergreen/images/icons/green/international.svg

<svg id="Layer_1" xmlns="http://www.w3.org/2000/svg" viewBox="0 0 16 16"><style>.st0{fill:#64953F;}</style><path class="st0" d="M8 0C3.6 0 0 3.6 0 8s3.6 8 8 8 8-3.6 8-8-3.6-8-8-8zm0 15c-1 0-1.9-.2-2.8-.6l3.6-4.1c.2-.1.2-.2.2-.3V8.5c0-.3-.2-.5-.5-.5-1.8 0-3.6-1.8-3.6-1.9-.1 0-.3-.1-.4-.1h-2c-.3 0-.5.2-.5.5v3c0 .2.1.4.3.4l1.7.9v2.9C2.2 12.5 1 10.4 1 8c0-1.1.2-2.1.7-3h1.8c.1 0 .3-.1.4-.1l2-2c0-.1.1-.3.1-.4V1.3c.6-.2 1.3-.3 2-.3 1.1 0 2.1.3 3.1.7l-.2.2c-.6.5-.9 1.3-.9 2.1s.3 1.6.9 2.1c.5.6 1.3.9 2.1.9h.1c.2.8.6 2.9-.1 5.8v.1c-1.3 1.3-3 2.1-5 2.1z"/></svg>

<?xml version="1.0" encoding="utf-8"?>
<!-- Generator: Adobe Illustrator 21.1.0, SVG Export Plug-In . SVG Version: 6.00 Build 0)  -->
<svg version="1.1" id="Layer_1" xmlns="http://www.w3.org/2000/svg" xmlns:xlink="http://www.w3.org/1999/xlink" x="0px" y="0px"
	 viewBox="0 0 16 16" style="enable-background:new 0 0 16 16;" xml:space="preserve">
<style type="text/css">
	.st0{fill:#64953F;}
</style>
<path class="st0" d="M8,0C3.6,0,0,3.6,0,8s3.6,8,8,8s8-3.6,8-8S12.4,0,8,0z M8,15c-1,0-1.9-0.2-2.8-0.6l3.6-4.1C9,10.2,9,10.1,9,10
	V8.5C9,8.2,8.8,8,8.5,8C6.7,8,4.9,6.2,4.9,6.1C4.8,6.1,4.6,6,4.5,6h-2C2.2,6,2,6.2,2,6.5v3c0,0.2,0.1,0.4,0.3,0.4L4,10.8v2.9
	C2.2,12.5,1,10.4,1,8c0-1.1,0.2-2.1,0.7-3h1.8c0.1,0,0.3-0.1,0.4-0.1l2-2C5.9,2.8,6,2.6,6,2.5V1.3C6.6,1.1,7.3,1,8,1
	c1.1,0,2.1,0.3,3.1,0.7c-0.1,0.1-0.1,0.1-0.2,0.2C10.3,2.4,10,3.2,10,4s0.3,1.6,0.9,2.1C11.4,6.7,12.2,7,13,7c0,0,0.1,0,0.1,0
	c0.2,0.8,0.6,2.9-0.1,5.8c0,0,0,0.1,0,0.1C11.7,14.2,10,15,8,15L8,15z"/>
</svg>
